usr/share/icons/EmeraldStarlight/mimetypes/64/image-vnd.dwg.svg

<?xml version="1.0" encoding="UTF-8" standalone="no"?>
<svg
   xmlns:dc="http://purl.org/dc/elements/1.1/"
   xmlns:cc="http://creativecommons.org/ns#"
   xmlns:rdf="http://www.w3.org/1999/02/22-rdf-syntax-ns#"
   xmlns:svg="http://www.w3.org/2000/svg"
   xmlns="http://www.w3.org/2000/svg"
   xmlns:xlink="http://www.w3.org/1999/xlink"
   xmlns:sodipodi="http://sodipodi.sourceforge.net/DTD/sodipodi-0.dtd"
   xmlns:inkscape="http://www.inkscape.org/namespaces/inkscape"
   viewBox="0 0 64 64"
   id="svg2"
   version="1.1"
   inkscape:version="0.91+devel r"
   sodipodi:docname="image-vnd.dwg.svg"
   width="64"
   height="64">
  <metadata
     id="metadata84">
    <rdf:RDF>
      <cc:Work
         rdf:about="">
        <dc:format>image/svg+xml</dc:format>
        <dc:type
           rdf:resource="http://purl.org/dc/dcmitype/StillImage" />
        <dc:title />
      </cc:Work>
    </rdf:RDF>
  </metadata>
  <sodipodi:namedview
     pagecolor="#ffffff"
     bordercolor="#666666"
     borderopacity="1"
     objecttolerance="10"
     gridtolerance="10000"
     guidetolerance="10"
     inkscape:pageopacity="0"
     inkscape:pageshadow="2"
     inkscape:window-width="1366"
     inkscape:window-height="670"
     id="namedview82"
     showgrid="true"
     inkscape:showpageshadow="false"
     inkscape:zoom="8"
     inkscape:cx="14.366611"
     inkscape:cy="32.955377"
     inkscape:window-x="-4"
     inkscape:window-y="29"
     inkscape:window-maximized="1"
     inkscape:current-layer="svg2"
     showguides="true">
    <inkscape:grid
       type="xygrid"
       id="grid3413" />
    <sodipodi:guide
       position="0,64"
       orientation="64,0"
       id="guide3482" />
    <sodipodi:guide
       position="0,0"
       orientation="0,64"
       id="guide3484" />
    <sodipodi:guide
       position="64,0"
       orientation="-64,0"
       id="guide3486" />
    <sodipodi:guide
       position="64,64"
       orientation="0,-64"
       id="guide3488" />
    <sodipodi:guide
       position="10,61"
       orientation="58,0"
       id="guide3492" />
    <sodipodi:guide
       position="10,3"
       orientation="0,44"
       id="guide3494" />
    <sodipodi:guide
       position="54,3"
       orientation="-58,0"
       id="guide3496" />
    <sodipodi:guide
       position="54,61"
       orientation="0,-44"
       id="guide3498" />
    <sodipodi:guide
       position="54,47"
       orientation="-14,0"
       id="guide4310" />
    <sodipodi:guide
       position="54,61"
       orientation="0,-14"
       id="guide4312" />
    <sodipodi:guide
       position="21,43"
       orientation="22,0"
       id="guide4250" />
    <sodipodi:guide
       position="21,21"
       orientation="0,22"
       id="guide4252" />
    <sodipodi:guide
       position="43,21"
       orientation="-22,0"
       id="guide4254" />
    <sodipodi:guide
       position="43,43"
       orientation="0,-22"
       id="guide4256" />
    <sodipodi:guide
       position="32,41"
       orientation="1,0"
       id="guide4177" />
  </sodipodi:namedview>
  <defs
     id="defs4">
    <linearGradient
       inkscape:collect="always"
       xlink:href="#linearGradient4300-2"
       id="linearGradient4306"
       x1="32"
       y1="61"
       x2="32"
       y2="3"
       gradientUnits="userSpaceOnUse" />
    <linearGradient
       gradientTransform="matrix(1,0,0,-1,-14,78)"
       inkscape:collect="always"
       xlink:href="#linearGradient4410"
       id="linearGradient4427"
       x1="54"
       y1="31"
       x2="40"
       y2="17"
       gradientUnits="userSpaceOnUse" />
    <linearGradient
       inkscape:collect="always"
       id="linearGradient4410">
      <stop
         style="stop-color:#383e51;stop-opacity:1"
         offset="0"
         id="stop4412" />
      <stop
         style="stop-color:#655c6f;stop-opacity:0"
         offset="1"
         id="stop4414" />
    </linearGradient>
    <linearGradient
       inkscape:collect="always"
       xlink:href="#linearGradient4351-8"
       id="linearGradient4357"
       x1="47"
       y1="61"
       x2="47"
       y2="47"
       gradientUnits="userSpaceOnUse" />
    <linearGradient
       id="linearGradient4351-8"
       inkscape:collect="always">
      <stop
         id="stop4353-0"
         offset="0"
         style="stop-color:#97aad8;stop-opacity:1" />
      <stop
         id="stop4355-9"
         offset="1"
         style="stop-color:#aab7df;stop-opacity:1" />
    </linearGradient>
    <linearGradient
       id="linearGradient4300-2">
      <stop
         style="stop-color:#3a539b;stop-opacity:1"
         offset="0"
         id="stop4302-4" />
      <stop
         style="stop-color:#3f5aa9;stop-opacity:1"
         offset="1"
         id="stop4304-1" />
    </linearGradient>
  </defs>
  <path
     style="fill:url(#linearGradient4306);fill-opacity:1.0;stroke:none"
     d="M 10 3 L 10 61 L 40 61 L 54 47 L 54 17 L 54 3 L 40 3 L 10 3 z "
     id="rect3500" />
  <rect
     style="opacity:1;fill:#2e3132;fill-opacity:0.29411765;stroke:none"
     id="rect4169"
     width="30"
     height="1"
     x="10"
     y="60" />
  <rect
     style="opacity:1;fill:#ffffff;fill-opacity:0.40983605;stroke:none"
     id="rect4236"
     width="44"
     height="1"
     x="10"
     y="3" />
  <path
     style="fill:url(#linearGradient4357);fill-opacity:1.0;fill-rule:evenodd;stroke:none;stroke-width:1px;stroke-linecap:butt;stroke-linejoin:miter;stroke-opacity:1"
     d="M 54,47 40,61 40,47 Z"
     id="path4314"
     inkscape:connector-curvature="0" />
  <path
     inkscape:connector-curvature="0"
     id="path4320"
     d="M 26,61 40,47 40,61 Z"
     style="opacity:0.2;fill:url(#linearGradient4427);fill-opacity:1;fill-rule:evenodd;stroke:none;stroke-width:1px;stroke-linecap:butt;stroke-linejoin:miter;stroke-opacity:1" />
  <path
     style="opacity:1;fill:none;fill-opacity:1;stroke:none"
     d="m -7,21 -12,4 0,13.544922 L -15,37 -15,26 -7,24.285156 -7,40.333984 -19,39 l 12,4 6,-2 0,-18 -6,-2 z"
     id="rect4323"
     inkscape:connector-curvature="0" />
  <path
     style="fill:#aab7df;fill-opacity:1;fill-rule:evenodd;stroke:none;stroke-width:1px;stroke-linecap:butt;stroke-linejoin:miter;stroke-opacity:1"
     d="M 30 21 L 30 25 L 34 25 L 34 21 L 30 21 z M 31 22 L 33 22 L 33 24 L 31 24 L 31 22 z M 29.335938 23.257812 L 27.404297 23.775391 L 27.664062 24.742188 L 29.595703 24.224609 L 29.335938 23.257812 z M 26.335938 24.257812 L 24.404297 24.775391 L 24.664062 25.742188 L 26.595703 25.224609 L 26.335938 24.257812 z M 35 24.533203 L 35 25.568359 L 41.142578 27.212891 L 35 28.966797 L 35 30 L 35 37.433594 L 35 38.46875 L 35 41.966797 L 35 43 L 35.029297 43 L 43 40.722656 L 43 40.666016 L 43 40.611328 L 43 39.683594 L 43 27.722656 L 43 27.710938 L 43 26.660156 L 35 24.533203 z M 23 25 A 1 1 0 0 0 22 26 A 1 1 0 0 0 23 27 A 1 1 0 0 0 24 26 A 1 1 0 0 0 23 25 z M 21 27 L 21 41 L 33 43 L 33 29 L 21 27 z M 42 28.007812 L 42 39.310547 L 36 37.701172 L 36 29.722656 L 42 28.007812 z M 36 38.736328 L 41.322266 40.162109 L 36 41.681641 L 36 38.736328 z "
     id="path4166" />
</svg>

<svg width="64" xmlns="http://www.w3.org/2000/svg" viewBox="0 0 64 64" height="64">
 <defs>
  <linearGradient id="a" y1="57" y2="7" x2="0" gradientUnits="userSpaceOnUse">
   <stop stop-color="#3a539b"/>
   <stop offset="1" stop-color="#3f5aa9"/>
  </linearGradient>
 </defs>
 <g color-rendering="auto" color-interpolation-filters="linearRGB" shape-rendering="auto" image-rendering="auto" text-rendering="auto" color-interpolation="sRGB" color="#000000">
  <path fill="url(#a)" d="m4 57v-50h56v50z"/>
  <rect opacity=".25" x="4" y="56" width="56" height="1"/>
  <rect opacity=".5" x="4" y="7" width="56" fill="#ffffff" height="1"/>
  <path opacity=".75" fill="#c1cae7" stroke-width="2" d="m8 11v42h48v-42h-1zm1 1h46v40h-46z"/>
 </g>
 <path fill="#c1cae7" fill-rule="evenodd" d="m30 21v4h4v-4zm1 1h2v2h-2zm-1.664 1.258l-1.932.518.26.967 1.932-.518zm-3 1l-1.932.518.26.967 1.932-.518zm8.664.275v1.035l6.143 1.645-6.143 1.754v14.03h.029l7.971-2.277v-14.06zm-12 .4668a1 1 0 0 0 -1 1 1 1 0 0 0 1 1 1 1 0 0 0 1 -1 1 1 0 0 0 -1 -1m-2 2v14l12 2v-14zm21 1.01v11.303l-6-1.609v-7.979zm-6 10.729l5.322 1.426-5.322 1.52z"/>
</svg>
